_inc/systems/logos/neogeo.svg

<svg xmlns="http://www.w3.org/2000/svg" viewBox="0 0 3839 671.9"><path d="M643.3 16h-195v25.6h25.4c34.1 0 61.7 31.8 61.7 65.7v316.4L202.9 16H0v25.6c45.3 0 81.1 40.9 81.1 86.3v443.4c0 45.3-47.8 60.4-81.1 60.4v25.6h220.4v-25.6c-41.3-.2-63.1-5.9-77.2-19.2-14.1-13.4-17.9-31.1-17.9-55.4V141.5l430.5 524.9h23.5V108c0-33.1 25.9-61.2 64-62.6z" class="st3" style="fill:#fff"/><circle cx="1943.7" cy="334.6" r="74.4" class="st3" style="fill:#fff"/><path d="M2362.6 357.3v31h24.2c39.3 0 50.5 19 50.5 52.9v151.6c-9 11-39.7 24.8-83 24.8-8.8 0-59-1-96.5-31.8-39.2-32.2-65.6-97.4-65.6-252.4 0-201.8 71-287.3 173.9-287.3 33.5 0 147 22.6 195.3 168.6h30.3V4.1h-28.6c-3.6 28.3-26 44-68.3 26.4C2430.9 4 2373.8 0 2332 0c-164.6 0-304.9 152.5-304.9 334.6 0 209.8 158.4 332.7 328.5 332.7 80.6 0 166.1-18.6 233.8-52.9V441.2c0-40.6 28.3-52.9 66.5-52.9v-31zM1185.2 459.4c-15.9 87.9-91.7 156.5-176.7 154.3h-73.4c-23 0-41.7-18.7-41.7-41.7V347.2h20.1c60 0 98.3 50.2 98.3 136.6h26.3V172.7h-26.3c0 76-32.1 130.9-98.4 130.9h-20.1V54.5h105.5c142 0 146.8 126.5 146.8 142.8h28.3V16H662.2v25.5h36.1c27.6 0 50 26.1 50 53.6v472.1c0 49.7-32.6 61-60.2 61h-25.9v29.2h519.1l29.2-198z" class="st3" style="fill:#fff"/><path d="M1533.5 9.3c-184.6 0-326.7 135.9-326.7 331.3s142.2 331.3 326.7 331.3c184.6 0 326.8-135.9 326.8-331.3S1718.1 9.3 1533.5 9.3m0 619.7c-88.7 0-160.4-81.2-160.4-288.5S1445 52.1 1533.5 52.1c88.7 0 160.4 81.2 160.4 288.5.2 207.2-71.7 288.4-160.4 288.4m1630.4-169.6c-15.9 87.9-91.7 156.5-176.7 154.3h-73.4c-23 0-41.7-18.7-41.7-41.7V347.2h20.1c60 0 98.3 50.2 98.3 136.6h26.3V172.7h-26.3c0 76-32.1 130.9-98.4 130.9H2872V54.5h105.5c142 0 146.8 126.5 146.8 142.8h28.3V16h-511.7v25.5h36.1c27.6 0 50 26.1 50 53.6v472.1c0 49.7-32.6 61-60.2 61h-25.9v29.2H3160l29.2-198z" class="st3" style="fill:#fff"/><path d="M3512.2 9.3c-184.6 0-326.7 135.9-326.7 331.3s142.2 331.3 326.7 331.3c184.6 0 326.8-135.9 326.8-331.3S3696.8 9.3 3512.2 9.3m0 619.7c-88.7 0-160.4-81.2-160.4-288.5S3423.7 52 3512.2 52c88.7 0 160.4 81.2 160.4 288.5.2 207.3-71.7 288.5-160.4 288.5" class="st3" style="fill:#fff"/></svg>

<?xml version="1.0" encoding="utf-8"?>
<svg version="1.1" viewBox="0 0 3839 671.9" xmlns="http://www.w3.org/2000/svg">
  <path class="st3" d="M 643.3 16 L 448.3 16 L 448.3 41.6 L 473.7 41.6 C 507.8 41.6 535.4 73.4 535.4 107.3 L 535.4 423.7 L 202.9 16 L 0 16 L 0 41.6 C 45.3 41.6 81.1 82.5 81.1 127.9 L 81.1 571.3 C 81.1 616.6 33.3 631.7 0 631.7 L 0 657.3 L 220.4 657.3 L 220.4 631.7 C 179.1 631.5 157.3 625.8 143.2 612.5 C 129.1 599.1 125.3 581.4 125.3 557.1 L 125.3 141.5 L 555.8 666.4 L 579.3 666.4 L 579.3 108 C 579.3 74.9 605.2 46.8 643.3 45.4 L 643.3 16 Z" style="fill: rgb(255, 255, 255);"/>
  <circle class="st3" cx="1943.7" cy="334.6" r="74.4" style="fill: rgb(255, 255, 255);"/>
  <path class="st3" d="M 2362.6 357.3 L 2362.6 388.3 L 2386.8 388.3 C 2426.1 388.3 2437.3 407.3 2437.3 441.2 L 2437.3 592.8 C 2428.3 603.8 2397.6 617.6 2354.3 617.6 C 2345.5 617.6 2295.3 616.6 2257.8 585.8 C 2218.6 553.6 2192.2 488.4 2192.2 333.4 C 2192.2 131.6 2263.2 46.1 2366.1 46.1 C 2399.6 46.1 2513.1 68.7 2561.4 214.7 L 2591.7 214.7 L 2591.7 4.1 L 2563.1 4.1 C 2559.5 32.4 2537.1 48.1 2494.8 30.5 C 2430.9 4 2373.8 0 2332 0 C 2167.4 0 2027.1 152.5 2027.1 334.6 C 2027.1 544.4 2185.5 667.3 2355.6 667.3 C 2436.2 667.3 2521.7 648.7 2589.4 614.4 L 2589.4 441.2 C 2589.4 400.6 2617.7 388.3 2655.9 388.3 L 2655.9 357.3 L 2362.6 357.3 L 2362.6 357.3 Z" style="fill: rgb(255, 255, 255);"/>
  <path class="st3" d="M 1185.2 459.4 C 1169.3 547.3 1093.5 615.9 1008.5 613.7 L 935.1 613.7 C 912.1 613.7 893.4 595 893.4 572 L 893.4 347.2 L 913.5 347.2 C 973.5 347.2 1011.8 397.4 1011.8 483.8 L 1038.1 483.8 L 1038.1 330.7 L 1038.1 322.9 L 1038.1 172.7 L 1011.8 172.7 C 1011.8 248.7 979.7 303.6 913.4 303.6 L 893.3 303.6 L 893.3 54.5 L 998.8 54.5 C 1140.8 54.5 1145.6 181 1145.6 197.3 L 1173.9 197.3 L 1173.9 59.9 L 1173.9 16 L 662.2 16 L 662.2 41.5 L 698.3 41.5 C 725.9 41.5 748.3 67.6 748.3 95.1 L 748.3 567.2 C 748.3 616.9 715.7 628.2 688.1 628.2 L 662.2 628.2 L 662.2 657.4 L 748.3 657.4 L 1181.3 657.4 L 1210.5 459.4 L 1185.2 459.4 Z" style="fill: rgb(255, 255, 255);"/>
  <path class="st3" d="M 1533.5 9.3 C 1348.9 9.3 1206.8 145.2 1206.8 340.6 C 1206.8 536 1349 671.9 1533.5 671.9 C 1718.1 671.9 1860.3 536 1860.3 340.6 C 1860.3 145.2 1718.1 9.3 1533.5 9.3 Z M 1533.5 629 C 1444.8 629 1373.1 547.8 1373.1 340.5 C 1373.1 133.2 1445 52.1 1533.5 52.1 C 1622.2 52.1 1693.9 133.3 1693.9 340.6 C 1694.1 547.8 1622.2 629 1533.5 629 Z" style="fill: rgb(255, 255, 255);"/>
  <path class="st3" d="M 3163.9 459.4 C 3148 547.3 3072.2 615.9 2987.2 613.7 L 2913.8 613.7 C 2890.8 613.7 2872.1 595 2872.1 572 L 2872.1 347.2 L 2892.2 347.2 C 2952.2 347.2 2990.5 397.4 2990.5 483.8 L 3016.8 483.8 L 3016.8 330.7 L 3016.8 322.9 L 3016.8 172.7 L 2990.5 172.7 C 2990.5 248.7 2958.4 303.6 2892.1 303.6 L 2872 303.6 L 2872 54.5 L 2977.5 54.5 C 3119.5 54.5 3124.3 181 3124.3 197.3 L 3152.6 197.3 L 3152.6 59.9 L 3152.6 16 L 2640.9 16 L 2640.9 41.5 L 2677 41.5 C 2704.6 41.5 2727 67.6 2727 95.1 L 2727 567.2 C 2727 616.9 2694.4 628.2 2666.8 628.2 L 2640.9 628.2 L 2640.9 657.4 L 2727 657.4 L 3160 657.4 L 3189.2 459.4 L 3163.9 459.4 Z" style="fill: rgb(255, 255, 255);"/>
  <path class="st3" d="M 3512.2 9.3 C 3327.6 9.3 3185.5 145.2 3185.5 340.6 C 3185.5 536 3327.7 671.9 3512.2 671.9 C 3696.8 671.9 3839 536 3839 340.6 C 3839 145.2 3696.8 9.3 3512.2 9.3 Z M 3512.2 629 C 3423.5 629 3351.8 547.8 3351.8 340.5 C 3351.8 133.2 3423.7 52 3512.2 52 C 3600.9 52 3672.6 133.2 3672.6 340.5 C 3672.8 547.8 3600.9 629 3512.2 629 Z" style="fill: rgb(255, 255, 255);"/>
</svg>
